svg/justvector/dailybooth.svg

<svg xmlns="http://www.w3.org/2000/svg" viewBox="0 0 100 100" enable-background="new 0 0 100 100"><path d="m50 95c10.749 0 20.618-3.771 28.356-10.06l15.793 5.708-6.582-15.867-.002-.002c4.698-7.106 7.435-15.623 7.435-24.779 0-24.853-20.15-45-45-45s-45 20.15-45 45c0 24.853 20.15 45 45 45m-24.901-56.708l9.373-2.202c2.658-5.127 8.01-8.632 14.18-8.632 3.528 0 6.787 1.147 9.43 3.086l9.08-2.134c2.143-.502 4.337 1.045 4.904 3.459l6.129 26.09c.567 2.415-.709 4.778-2.85 5.282l-42.06 9.881c-2.142.504-4.337-1.045-4.904-3.459l-6.131-26.09c-.567-2.412.71-4.776 2.851-5.28m25.813 23.381c6.26 0 11.336-5.076 11.336-11.337 0-6.26-5.076-11.335-11.336-11.335-6.262 0-11.338 5.075-11.338 11.335 0 6.261 5.076 11.337 11.338 11.337m0-18.586c4 0 7.249 3.246 7.249 7.25 0 4-3.245 7.248-7.249 7.248s-7.249-3.245-7.249-7.248c0-4 3.245-7.25 7.249-7.25"/></svg>

<?xml version="1.0" encoding="iso-8859-1"?>
<!-- Generator: Adobe Illustrator 15.0.0, SVG Export Plug-In . SVG Version: 6.00 Build 0)  -->
<!DOCTYPE svg PUBLIC "-//W3C//DTD SVG 1.1//EN" "http://www.w3.org/Graphics/SVG/1.1/DTD/svg11.dtd">
<svg version="1.1" id="Layer_1" xmlns="http://www.w3.org/2000/svg" xmlns:xlink="http://www.w3.org/1999/xlink" x="0px" y="0px"
	 width="100px" height="100px" viewBox="0 0 100 100" style="enable-background:new 0 0 100 100;" xml:space="preserve">
<path id="Dailybooth" d="M50,95c10.749,0,20.618-3.771,28.356-10.06l15.793,5.708l-6.582-15.867l-0.002-0.002
	C92.263,67.673,95,59.156,95,50C95,25.147,74.854,5,50,5S5,25.147,5,50C5,74.853,25.146,95,50,95z M25.099,38.292l9.373-2.202
	c2.658-5.127,8.006-8.632,14.18-8.632c3.528,0,6.787,1.147,9.43,3.086l9.079-2.134c2.143-0.502,4.337,1.045,4.904,3.459
	l6.129,26.094c0.567,2.415-0.709,4.778-2.85,5.282l-42.061,9.881c-2.142,0.504-4.337-1.045-4.904-3.459l-6.131-26.095
	C21.681,41.16,22.958,38.796,25.099,38.292z M50.912,61.673c6.26,0,11.336-5.076,11.336-11.337c0-6.26-5.076-11.335-11.336-11.335
	c-6.262,0-11.338,5.075-11.338,11.335C39.574,56.597,44.65,61.673,50.912,61.673z M50.912,43.087c4.004,0,7.249,3.246,7.249,7.25
	c0,4.003-3.245,7.248-7.249,7.248s-7.249-3.245-7.249-7.248C43.663,46.333,46.908,43.087,50.912,43.087z"/>
</svg>
